assets/images/brand3.svg

<svg width="130" height="34" viewBox="0 0 130 34" fill="none" xmlns="http://www.w3.org/2000/svg">
<path d="M28.1776 33.4948H7.08235C3.61568 33.4948 0.806152 30.7134 0.806152 27.2814V6.39704C0.806152 2.96503 3.61568 0.183594 7.08235 0.183594H28.1776C31.6443 0.183594 34.4538 2.96503 34.4538 6.39704V27.2814C34.4538 30.7134 31.6443 33.4948 28.1776 33.4948Z" fill="#3C2B4A"/>
<path d="M23.6916 17.1455C24.2916 17.8903 24.5963 18.7577 24.5963 19.7383C24.5963 21.1809 24.1106 22.3123 23.1392 23.1137C22.1678 23.9152 20.7773 24.33 18.9678 24.33H11.063V7.5H18.7773C20.5106 7.5 21.844 7.87715 22.7868 8.622C23.7297 9.36686 24.2059 10.4323 24.2059 11.8089C24.2059 12.8272 23.9297 13.6663 23.3868 14.3452C22.844 15.024 22.1297 15.4577 21.244 15.6652C22.2821 15.9103 23.0916 16.4006 23.6916 17.1455ZM15.1678 14.3829H17.863C19.2916 14.3829 20.0058 13.7794 20.0058 12.5726C20.0058 11.3657 19.2725 10.7623 17.8154 10.7623H15.1678V14.3829ZM20.3868 19.1726C20.3868 18.5692 20.1868 18.0977 19.7868 17.7583C19.3868 17.4189 18.8154 17.2492 18.082 17.2492H15.1773V21.03H18.1106C19.6249 21.0206 20.3868 20.4077 20.3868 19.1726Z" fill="white"/>
<path d="M53.9494 24.33L50.2732 17.9752H49.3399V24.33H45.2256V7.5H52.2446C53.5875 7.5 54.7304 7.72629 55.6542 8.18829C56.5875 8.65029 57.2827 9.282 57.7494 10.0834C58.2161 10.8849 58.4447 11.7994 58.4447 12.8366C58.4447 14.0623 58.1018 15.0994 57.4256 15.9574C56.7399 16.8154 55.7589 17.4 54.4542 17.7206L58.4923 24.3395H53.9494V24.33ZM49.3399 15.1937H51.8827C52.7018 15.1937 53.3018 15.0146 53.6828 14.6563C54.0637 14.298 54.2637 13.77 54.2637 13.0723C54.2637 12.4029 54.0637 11.8843 53.6732 11.4977C53.2827 11.1206 52.6827 10.9226 51.8827 10.9226H49.3399V15.1937Z" fill="#3C2B4A"/>
<path d="M77.0542 21.2666H70.6827L69.6256 24.3403H65.3018L71.5304 7.63281H76.2637L82.4923 24.3403H78.1209L77.0542 21.2666ZM75.997 18.1645L73.8827 11.9794L71.7399 18.1645H75.997Z" fill="#3C2B4A"/>
<path d="M105.188 24.33H101.073L94.1973 13.9963V24.33H90.083V7.5H94.1973L101.073 17.928V7.5H105.188V24.33Z" fill="#3C2B4A"/>
<path d="M128.255 20.2761C127.54 21.5489 126.512 22.5484 125.179 23.2649C123.836 23.9815 122.264 24.3398 120.455 24.3398H114.036V7.50977H120.455C122.283 7.50977 123.864 7.85862 125.188 8.55634C126.521 9.25406 127.54 10.2346 128.255 11.5075C128.969 12.7803 129.321 14.2324 129.321 15.8918C129.321 17.5324 128.959 18.9938 128.255 20.2761ZM123.826 19.4275C124.712 18.5884 125.159 17.4004 125.159 15.8824C125.159 14.3549 124.712 13.1764 123.826 12.3372C122.94 11.4981 121.693 11.0738 120.083 11.0738H118.14V20.6909H120.083C121.693 20.6909 122.94 20.2761 123.826 19.4275Z" fill="#3C2B4A"/>
</svg>

<svg width="130" height="34" fill="none" xmlns="http://www.w3.org/2000/svg"><path d="M28.178 33.495H7.082c-3.466 0-6.276-2.782-6.276-6.214V6.397c0-3.432 2.81-6.213 6.276-6.213h21.096c3.466 0 6.276 2.781 6.276 6.213v20.884c0 3.432-2.81 6.214-6.276 6.214Z" fill="#3C2B4A"/><path d="M23.692 17.145c.6.745.904 1.613.904 2.593 0 1.443-.485 2.574-1.457 3.376-.971.801-2.362 1.216-4.171 1.216h-7.905V7.5h7.714c1.734 0 3.067.377 4.01 1.122.943.745 1.419 1.81 1.419 3.187 0 1.018-.276 1.857-.82 2.536-.542.679-1.256 1.113-2.142 1.32 1.038.245 1.848.736 2.448 1.48Zm-8.524-2.762h2.695c1.429 0 2.143-.604 2.143-1.81 0-1.207-.733-1.81-2.19-1.81h-2.648v3.62Zm5.219 4.79c0-.604-.2-1.075-.6-1.415-.4-.34-.972-.509-1.705-.509h-2.905v3.781h2.934c1.514-.01 2.276-.622 2.276-1.857Z" fill="#fff"/><path d="m53.95 24.33-3.677-6.355h-.933v6.355h-4.114V7.5h7.019c1.343 0 2.485.226 3.41.688.932.462 1.628 1.094 2.094 1.895.467.802.696 1.716.696 2.754 0 1.225-.343 2.262-1.02 3.12-.685.858-1.666 1.443-2.97 1.764l4.037 6.619H53.95v-.01Zm-4.61-9.136h2.543c.819 0 1.419-.18 1.8-.538.38-.358.58-.886.58-1.584 0-.67-.2-1.188-.59-1.574-.39-.377-.99-.575-1.79-.575H49.34v4.27ZM77.054 21.267h-6.371l-1.057 3.073h-4.324L71.53 7.633h4.734l6.228 16.707h-4.371l-1.067-3.073Zm-1.057-3.102-2.114-6.186-2.143 6.186h4.257ZM105.188 24.33h-4.115l-6.876-10.334V24.33h-4.114V7.5h4.114l6.876 10.428V7.5h4.115v16.83ZM128.255 20.276c-.715 1.273-1.743 2.272-3.076 2.989-1.343.716-2.915 1.075-4.724 1.075h-6.419V7.51h6.419c1.828 0 3.409.349 4.733 1.046 1.333.698 2.352 1.679 3.067 2.952.714 1.272 1.066 2.724 1.066 4.384 0 1.64-.362 3.102-1.066 4.384Zm-4.429-.849c.886-.839 1.333-2.027 1.333-3.545 0-1.527-.447-2.706-1.333-3.545-.886-.839-2.133-1.263-3.743-1.263h-1.943v9.617h1.943c1.61 0 2.857-.415 3.743-1.264Z" fill="#3C2B4A"/></svg>
